X:SSF 14-18 052
T:The Rakes Of Rochester
M:2/4
K:G
P:A
d/c/| BG GD E2 DG |1,3 FG cB A/G/F/E/ D :|2,4 FG B/A/G/F/ G2-G :|
P:B
A| B2 Ad B2 Ad |1,3 BG FG A/G/F/E/ D :|2,4 BA/G/ AG/F/ G2-G :|

%      SSFx 14-18 053 = WFS 14-01 31 Because He Was A Bonny Lad,
% into SSFx 14-18 054 = WFS 14-01 32 Welcome To The Town Again

